src/animations/24/nm-stage01-connecting04.svg

<?xml version="1.0" encoding="UTF-8" standalone="no"?>
<!-- Created with Inkscape (http://www.inkscape.org/) -->

<svg
   xmlns:dc="http://purl.org/dc/elements/1.1/"
   xmlns:cc="http://creativecommons.org/ns#"
   xmlns:rdf="http://www.w3.org/1999/02/22-rdf-syntax-ns#"
   xmlns:svg="http://www.w3.org/2000/svg"
   xmlns="http://www.w3.org/2000/svg"
   xmlns:inkscape="http://www.inkscape.org/namespaces/inkscape"
   version="1.0"
   width="24"
   height="24"
   id="svg3315">
  <metadata
     id="metadata30">
    <rdf:RDF>
      <cc:Work
         rdf:about="">
        <dc:format>image/svg+xml</dc:format>
        <dc:type
           rdf:resource="http://purl.org/dc/dcmitype/StillImage" />
      </cc:Work>
    </rdf:RDF>
  </metadata>
  <defs
     id="defs3317" />
  <path
     d="m 8.5004524,12.493762 -5.0004524,0"
     inkscape:connector-curvature="0"
     id="path3279"
     style="opacity:0.2;fill:none;stroke:#878787;stroke-width:1px;stroke-linecap:round;stroke-linejoin:miter;stroke-opacity:1" />
  <path
     d="m 21.512477,12.493761 -5.002717,1e-6"
     inkscape:connector-curvature="0"
     id="path3281"
     style="fill:none;stroke:#878787;stroke-width:1px;stroke-linecap:round;stroke-linejoin:miter;stroke-opacity:1" />
  <path
     d="m 8.6369473,13.530536 -4.830067,1.294212"
     inkscape:connector-curvature="0"
     id="path2629"
     style="opacity:0.175;fill:none;stroke:#878787;stroke-width:1px;stroke-linecap:round;stroke-linejoin:miter;stroke-opacity:1" />
  <path
     d="m 21.205597,10.162775 -4.832253,1.294799"
     inkscape:connector-curvature="0"
     id="path2631"
     style="opacity:0.875;fill:none;stroke:#878787;stroke-width:1px;stroke-linecap:round;stroke-linejoin:miter;stroke-opacity:1" />
  <path
     d="m 9.0371263,14.496655 -4.330519,2.500226"
     inkscape:connector-curvature="0"
     id="path3403"
     style="opacity:0.15;fill:none;stroke:#878787;stroke-width:1px;stroke-linecap:round;stroke-linejoin:miter;stroke-opacity:1" />
  <path
     d="M 20.30587,7.9906423 15.97339,10.492001"
     inkscape:connector-curvature="0"
     id="path3405"
     style="opacity:0.75;fill:none;stroke:#878787;stroke-width:1px;stroke-linecap:round;stroke-linejoin:miter;stroke-opacity:1" />
  <path
     d="M 9.6737213,15.32628 6.1378656,18.862134"
     inkscape:connector-curvature="0"
     id="path3407"
     style="opacity:0.125;fill:none;stroke:#878787;stroke-width:1px;stroke-linecap:round;stroke-linejoin:miter;stroke-opacity:1" />
  <path
     d="M 18.874611,6.1253893 15.337155,9.6628442"
     inkscape:connector-curvature="0"
     id="path3409"
     style="opacity:0.675;fill:none;stroke:#878787;stroke-width:1px;stroke-linecap:round;stroke-linejoin:miter;stroke-opacity:1" />
  <path
     d="M 10.503346,15.962875 8.0031195,20.293393"
     inkscape:connector-curvature="0"
     id="path3415"
     style="opacity:0.1;fill:none;stroke:#878787;stroke-width:1px;stroke-linecap:round;stroke-linejoin:miter;stroke-opacity:1" />
  <path
     d="M 17.009358,4.6941302 14.508,9.0266101"
     inkscape:connector-curvature="0"
     id="path3417"
     style="opacity:0.6;fill:none;stroke:#878787;stroke-width:1px;stroke-linecap:round;stroke-linejoin:miter;stroke-opacity:1" />
  <path
     d="M 11.469467,16.363054 10.175253,21.19312"
     inkscape:connector-curvature="0"
     id="path3419"
     style="opacity:0.075;fill:none;stroke:#878787;stroke-width:1px;stroke-linecap:round;stroke-linejoin:miter;stroke-opacity:1" />
  <path
     d="M 14.837225,3.7944033 13.542427,8.6266572"
     inkscape:connector-curvature="0"
     id="path3421"
     style="opacity:0.55;fill:none;stroke:#878787;stroke-width:1px;stroke-linecap:round;stroke-linejoin:miter;stroke-opacity:1" />
  <path
     d="m 12.506239,16.499547 -1e-6,5.000452"
     inkscape:connector-curvature="0"
     id="path3423"
     style="opacity:0.05;fill:none;stroke:#878787;stroke-width:1px;stroke-linecap:round;stroke-linejoin:miter;stroke-opacity:1" />
  <path
     d="m 12.506238,3.4875227 1e-6,5.0027175"
     inkscape:connector-curvature="0"
     id="path3425"
     style="opacity:0.5;fill:none;stroke:#878787;stroke-width:1px;stroke-linecap:round;stroke-linejoin:miter;stroke-opacity:1" />
  <path
     d="m 13.543013,16.363052 1.294212,4.830067"
     inkscape:connector-curvature="0"
     id="path3427"
     style="opacity:0.025;fill:none;stroke:#878787;stroke-width:1px;stroke-linecap:round;stroke-linejoin:miter;stroke-opacity:1" />
  <path
     d="m 10.175253,3.7944029 1.294798,4.832254"
     inkscape:connector-curvature="0"
     id="path3429"
     style="opacity:0.45;fill:none;stroke:#878787;stroke-width:1px;stroke-linecap:round;stroke-linejoin:miter;stroke-opacity:1" />
  <path
     d="M 8.0031186,4.69413 10.504478,9.0266098"
     inkscape:connector-curvature="0"
     id="path3433"
     style="opacity:0.4;fill:none;stroke:#878787;stroke-width:1px;stroke-linecap:round;stroke-linejoin:miter;stroke-opacity:1" />
  <path
     d="M 6.1378671,6.1253893 9.6753232,9.6628445"
     inkscape:connector-curvature="0"
     id="path3437"
     style="opacity:0.35;fill:none;stroke:#878787;stroke-width:0.99999994px;stroke-linecap:round;stroke-linejoin:miter;stroke-opacity:1" />
  <path
     d="M 4.706607,7.9906417 9.0390878,10.492001"
     inkscape:connector-curvature="0"
     id="path2407"
     style="opacity:0.3;fill:none;stroke:#878787;stroke-width:1px;stroke-linecap:round;stroke-linejoin:miter;stroke-opacity:1" />
  <path
     d="M 3.8068809,10.162777 8.639135,11.457575"
     inkscape:connector-curvature="0"
     id="path2413"
     style="opacity:0.25;fill:none;stroke:#878787;stroke-width:1px;stroke-linecap:round;stroke-linejoin:miter;stroke-opacity:1" />
  <path
     d="M 21.205597,14.824747 16.373343,13.529949"
     inkscape:connector-curvature="0"
     id="path2401"
     style="opacity:0;fill:none;stroke:#878787;stroke-width:1px;stroke-linecap:round;stroke-linejoin:miter;stroke-opacity:1" />
  <path
     d="M 18.874611,18.862133 15.337155,15.324678"
     inkscape:connector-curvature="0"
     id="path2405"
     style="opacity:0;fill:none;stroke:#878787;stroke-width:1px;stroke-linecap:round;stroke-linejoin:miter;stroke-opacity:1" />
  <path
     d="M 20.30587,16.99688 15.973389,14.495523"
     inkscape:connector-curvature="0"
     id="path2410"
     style="opacity:0;fill:none;stroke:#878787;stroke-width:1px;stroke-linecap:round;stroke-linejoin:miter;stroke-opacity:1" />
  <path
     d="m 17.009358,20.293393 -2.501359,-4.33248"
     inkscape:connector-curvature="0"
     id="path2414"
     style="opacity:0;fill:none;stroke:#878787;stroke-width:1px;stroke-linecap:round;stroke-linejoin:miter;stroke-opacity:1" />
</svg>

<svg width="24" height="24" version="1.0" xmlns="http://www.w3.org/2000/svg" xmlns:cc="http://creativecommons.org/ns#" xmlns:dc="http://purl.org/dc/elements/1.1/" xmlns:rdf="http://www.w3.org/1999/02/22-rdf-syntax-ns#">
 <metadata>
  <rdf:RDF>
   <cc:Work rdf:about="">
    <dc:format>image/svg+xml</dc:format>
    <dc:type rdf:resource="http://purl.org/dc/dcmitype/StillImage"/>
   </cc:Work>
  </rdf:RDF>
 </metadata>
 <path d="m8.5005 12.494h-5.0005" fill="none" opacity=".2" stroke="#878787" stroke-linecap="round" stroke-width="1px"/>
 <path d="m21.512 12.494-5.0027 1e-6" fill="none" stroke="#878787" stroke-linecap="round" stroke-width="1px"/>
 <path d="m8.6369 13.531-4.8301 1.2942" fill="none" opacity=".175" stroke="#878787" stroke-linecap="round" stroke-width="1px"/>
 <path d="m21.206 10.163-4.8323 1.2948" fill="none" opacity=".875" stroke="#878787" stroke-linecap="round" stroke-width="1px"/>
 <path d="m9.0371 14.497-4.3305 2.5002" fill="none" opacity=".15" stroke="#878787" stroke-linecap="round" stroke-width="1px"/>
 <path d="m20.306 7.9906-4.3325 2.5014" fill="none" opacity=".75" stroke="#878787" stroke-linecap="round" stroke-width="1px"/>
 <path d="m9.6737 15.326-3.5359 3.5359" fill="none" opacity=".125" stroke="#878787" stroke-linecap="round" stroke-width="1px"/>
 <path d="m18.875 6.1254-3.5375 3.5375" fill="none" opacity=".675" stroke="#878787" stroke-linecap="round" stroke-width="1px"/>
 <path d="m10.503 15.963-2.5002 4.3305" fill="none" opacity=".1" stroke="#878787" stroke-linecap="round" stroke-width="1px"/>
 <path d="m17.009 4.6941-2.5014 4.3325" fill="none" opacity=".6" stroke="#878787" stroke-linecap="round" stroke-width="1px"/>
 <path d="m11.469 16.363-1.2942 4.8301" fill="none" opacity=".075" stroke="#878787" stroke-linecap="round" stroke-width="1px"/>
 <path d="m14.837 3.7944-1.2948 4.8323" fill="none" opacity=".55" stroke="#878787" stroke-linecap="round" stroke-width="1px"/>
 <path d="m12.506 16.5-1e-6 5.0005" fill="none" opacity=".05" stroke="#878787" stroke-linecap="round" stroke-width="1px"/>
 <path d="m12.506 3.4875 1e-6 5.0027" fill="none" opacity=".5" stroke="#878787" stroke-linecap="round" stroke-width="1px"/>
 <path d="m13.543 16.363 1.2942 4.8301" fill="none" opacity=".025" stroke="#878787" stroke-linecap="round" stroke-width="1px"/>
 <path d="m10.175 3.7944 1.2948 4.8323" fill="none" opacity=".45" stroke="#878787" stroke-linecap="round" stroke-width="1px"/>
 <path d="m8.0031 4.6941 2.5014 4.3325" fill="none" opacity=".4" stroke="#878787" stroke-linecap="round" stroke-width="1px"/>
 <path d="m6.1379 6.1254 3.5375 3.5375" fill="none" opacity=".35" stroke="#878787" stroke-linecap="round" stroke-width="1px"/>
 <path d="m4.7066 7.9906 4.3325 2.5014" fill="none" opacity=".3" stroke="#878787" stroke-linecap="round" stroke-width="1px"/>
 <path d="m3.8069 10.163 4.8323 1.2948" fill="none" opacity=".25" stroke="#878787" stroke-linecap="round" stroke-width="1px"/>
 <path d="m21.206 14.825-4.8323-1.2948" opacity="0" stroke-width="1px"/>
 <path d="m18.875 18.862-3.5375-3.5375" opacity="0" stroke-width="1px"/>
 <path d="m20.306 16.997-4.3325-2.5014" opacity="0" stroke-width="1px"/>
 <path d="m17.009 20.293-2.5014-4.3325" opacity="0" stroke-width="1px"/>
</svg>
